<?xml version="1.0" encoding="UTF-8"?>
<map version="1.10" tiledversion="1.11.2" orientation="orthogonal" renderorder="right-down" width="6" height="9" tilewidth="16" tileheight="16" infinite="0" nextlayerid="15" nextobjectid="1">
 <tileset firstgid="1" name="paths" tilewidth="16" tileheight="16" tilecount="64" columns="4">
  <image source="paths.png" width="64" height="256"/>
 </tileset>
 <tileset firstgid="65" name="townInterior" tilewidth="16" tileheight="16" tilecount="2176" columns="32">
  <image source="townInterior.png" width="512" height="1088"/>
 </tileset>
 <tileset firstgid="2241" name="townInterior_2" tilewidth="16" tileheight="16" tilecount="1312" columns="32">
  <image source="townInterior_2.png" width="512" height="656"/>
 </tileset>
 <layer id="3" name="Back" width="6" height="9">
  <data encoding="csv">
1235,1235,1235,1235,1235,1235,
1235,1235,1235,1235,1235,1235,
1235,1235,1235,1235,1235,1235,
1062,1062,1062,1062,1062,1062,
1063,1063,1063,1063,1063,1063,
1063,1063,1063,1240,1241,1242,
1063,1063,1063,1272,1273,1274,
1063,1063,1063,1304,1305,1306,
1063,1063,1063,1063,1063,1063
</data>
 </layer>
 <layer id="14" name="Back2" width="6" height="9">
  <data encoding="csv">
0,0,0,0,0,0,
0,0,0,0,0,0,
203,203,203,203,203,203,
0,0,0,0,0,0,
0,0,0,0,0,0,
0,0,0,0,0,0,
0,0,0,0,0,0,
448,0,0,0,0,0,
0,0,0,0,0,0
</data>
 </layer>
 <layer id="4" name="Buildings" width="6" height="9">
  <data encoding="csv">
0,0,0,0,0,0,
2605,2606,2605,2606,2605,2606,
2637,2638,2637,2638,2637,2638,
2669,2670,2669,2670,2669,2670,
0,0,0,0,0,0,
0,0,2208,0,0,0,
0,0,2240,0,0,0,
0,0,0,0,0,0,
480,0,600,0,0,0
</data>
 </layer>
 <layer id="5" name="Front" width="6" height="9">
  <data encoding="csv">
0,0,0,0,0,0,
0,0,0,0,0,0,
0,0,0,0,0,0,
0,0,0,0,0,0,
0,0,0,0,0,0,
0,0,0,0,0,0,
0,0,0,0,0,0,
0,0,568,0,0,0,
0,0,0,0,0,0
</data>
 </layer>
 <layer id="6" name="AlwaysFront" width="6" height="9">
  <data encoding="csv">
0,0,0,0,0,0,
0,0,0,0,0,0,
0,0,0,0,0,0,
0,0,0,0,0,0,
0,0,0,0,0,0,
0,0,0,0,0,0,
0,0,0,0,0,0,
0,0,0,0,0,0,
0,0,0,0,0,0
</data>
 </layer>
 <layer id="7" name="Paths" width="6" height="9">
  <data encoding="csv">
0,0,0,0,0,0,
0,0,0,0,0,0,
0,0,0,0,0,0,
0,0,0,0,0,0,
0,0,0,0,0,0,
0,0,0,0,0,0,
0,0,0,0,0,0,
0,0,0,0,0,0,
0,0,0,0,0,0
</data>
 </layer>
 <objectgroup id="8" name="Back"/>
 <objectgroup id="9" name="Buildings"/>
 <objectgroup id="10" name="Front"/>
 <objectgroup id="11" name="AlwaysFront"/>
 <objectgroup id="12" name="Paths"/>
</map>
